src/components/LandingPage/images/SocialProofLogos/hasura.svg

<svg xmlns="http://www.w3.org/2000/svg" width="115" height="34" fill="none" viewBox="0 0 115 34"><g opacity=".4"><path fill="#fff" d="M46.6344 19.3727H44.4366C44.0919 19.3727 43.8333 19.0707 43.8333 18.7687V11.8217C43.8333 11.4765 43.5316 11.2177 43.23 11.2177H41.3338C40.989 11.2177 40.7305 11.5197 40.7305 11.8217V29.3832C40.7305 29.7284 41.0321 29.9873 41.3338 29.9873H43.23C43.5747 29.9873 43.8333 29.6853 43.8333 29.3832V22.5657C43.8333 22.2206 44.135 21.9617 44.4366 21.9617H46.6344C46.9792 21.9617 47.2378 22.2637 47.2378 22.5657V29.4264C47.2378 29.7716 47.5394 30.0305 47.8411 30.0305H49.7373C50.082 30.0305 50.3406 29.7284 50.3406 29.4264V11.8217C50.3406 11.4765 50.0389 11.2177 49.7373 11.2177H47.8411C47.4963 11.2177 47.2378 11.5197 47.2378 11.8217V18.7255C47.2378 19.0707 46.9792 19.3727 46.6344 19.3727Z"/><path fill="#fff" d="M56.3692 11.7354L53.2664 29.2969C53.2233 29.6421 53.4819 29.9873 53.8266 29.9873H55.7228C56.0245 29.9873 56.283 29.7716 56.283 29.4695L56.8002 26.2765C56.8433 25.9745 57.1018 25.7587 57.3604 25.7587H59.7737C60.0754 25.7587 60.334 25.9745 60.334 26.2765L60.8942 29.5127C60.9373 29.8147 61.1959 30.0305 61.4544 30.0305H63.4368C63.8246 30.0305 64.1263 29.6853 63.997 29.2969L60.7649 11.7354C60.7218 11.4334 60.4632 11.2177 60.2047 11.2177H56.9726C56.6709 11.2177 56.4554 11.4334 56.3692 11.7354ZM59.2566 23.1267H58.0068C57.619 23.1267 57.4035 22.7815 57.4466 22.4363L58.0068 15.964C58.1361 15.2736 59.0842 15.2736 59.1704 15.964L59.7737 22.4363C59.8599 22.7815 59.6014 23.1267 59.2566 23.1267Z"/><path fill="#fff" d="M72.5318 19.1135H70.4201C70.0323 19.1135 69.8168 18.9409 69.8168 18.5095V14.4535C69.8168 14.0652 70.0323 13.8494 70.4201 13.8494H71.6699C72.0577 13.8494 72.2732 14.022 72.2732 14.4535V16.352C72.2732 16.6972 72.5749 16.9561 72.8765 16.9561H74.8589C75.2037 16.9561 75.4622 16.6541 75.4622 16.352V13.9789C75.4622 12.1235 74.471 11.1742 72.4887 11.1742H69.6444C67.6621 11.1742 66.6709 12.1235 66.6709 13.9789V18.8115C66.6709 20.6669 67.6621 21.6593 69.6013 21.6593H71.713C72.1008 21.6593 72.3163 21.8319 72.3163 22.2634V26.7508C72.3163 27.1392 72.1439 27.3549 71.713 27.3549H70.4632C70.0754 27.3549 69.8599 27.1823 69.8599 26.7508V24.8523C69.8599 24.5071 69.5582 24.2482 69.2566 24.2482H67.2742C66.9295 24.2482 66.6709 24.5503 66.6709 24.8523V27.2255C66.6709 29.0809 67.6621 30.0301 69.6444 30.0301H72.4456C74.4279 30.0301 75.4191 29.0809 75.4191 27.2255V22.0045C75.4622 20.0628 74.428 19.1135 72.5318 19.1135Z"/><path fill="#fff" d="M84.299 26.7512C84.299 27.1395 84.1266 27.3552 83.6957 27.3552H82.015C81.6271 27.3552 81.4117 27.1826 81.4117 26.7512V11.8217C81.4117 11.4765 81.11 11.2177 80.8083 11.2177H78.826C78.4812 11.2177 78.2227 11.5197 78.2227 11.8217V27.1395C78.2227 28.9949 79.2138 29.9442 81.1962 29.9442H84.4283C86.4107 29.9442 87.4018 28.9949 87.4018 27.1395V11.8217C87.4018 11.4765 87.1002 11.2177 86.7985 11.2177H84.9454C84.6007 11.2177 84.3421 11.5197 84.3421 11.8217L84.299 26.7512Z"/><path fill="#fff" d="M99.8979 19.7608V14.0221C99.8979 12.1667 98.9068 11.2174 96.9244 11.2174H91.3221C90.9773 11.2174 90.7188 11.5194 90.7188 11.8215V29.383C90.7188 29.7282 91.0204 29.9871 91.3221 29.9871H93.2182C93.563 29.9871 93.8216 29.685 93.8216 29.383V23.2127C93.8216 22.8675 94.1232 22.6086 94.4249 22.6086C94.6404 22.6086 94.8558 22.7812 94.9851 22.997L97.4415 29.5987C97.5708 29.8145 97.7863 29.9871 98.0018 29.9871H100.07C100.458 29.9871 100.803 29.5987 100.631 29.2104L98.2603 23.0833C98.1311 22.7812 98.3034 22.4792 98.6051 22.3066C99.3808 21.8751 99.8979 20.969 99.8979 19.7608ZM96.752 14.4536V19.3725C96.752 19.7608 96.5365 19.9766 96.1487 19.9766H94.4249C94.0801 19.9766 93.8216 19.6745 93.8216 19.3725V14.4536C93.8216 14.1084 94.1232 13.8495 94.4249 13.8495H96.1487C96.5365 13.8495 96.752 14.0652 96.752 14.4536Z"/><path fill="#fff" d="M110.197 11.2174H106.965C106.663 11.2174 106.405 11.4331 106.405 11.7352L103.302 29.2967C103.259 29.6419 103.518 29.9871 103.862 29.9871H105.758C106.06 29.9871 106.319 29.7713 106.319 29.4693L106.836 26.2763C106.879 25.9742 107.137 25.7585 107.396 25.7585H109.809C110.111 25.7585 110.37 25.9742 110.37 26.2763L110.93 29.5124C110.973 29.8145 111.231 30.0302 111.49 30.0302H113.472C113.86 30.0302 114.162 29.685 114.033 29.2967L110.801 11.7352C110.714 11.4331 110.499 11.2174 110.197 11.2174ZM109.206 23.1264H108.042C107.655 23.1264 107.439 22.7812 107.482 22.4361L108.042 16.5247C108.172 15.8343 109.12 15.8343 109.206 16.5247L109.809 22.4361C109.852 22.7812 109.594 23.1264 109.206 23.1264Z"/><path fill="#fff" d="M28.6185 11.3037C29.5666 9.01683 29.5666 4.35677 28.3169 0.775438C27.9721 0.128209 27.024 0.343952 26.9809 1.03433V1.29322C26.7655 4.70196 25.5157 6.55735 23.6626 7.46347C23.361 7.59292 22.8869 7.59292 22.5853 7.37718C20.3874 5.99642 17.8017 5.1766 15.0006 5.1766C12.1994 5.1766 9.61374 5.99642 7.41591 7.37718C7.11425 7.54977 6.76949 7.59292 6.46783 7.46347C4.57166 6.7731 3.27882 4.70196 3.06334 1.25007V0.991181C3.02025 0.300803 2.02907 0.0850601 1.7274 0.732289C0.477656 4.35677 0.520751 9.01683 1.42574 11.3037C1.89978 12.4256 1.89978 13.72 1.51193 14.885C0.994793 16.3521 0.736225 17.9917 0.779319 19.6314C0.951698 27.1392 7.32972 33.5252 14.8282 33.6547C22.7576 33.741 29.2219 27.355 29.2219 19.4156C29.2219 17.8191 28.9633 16.3089 28.4892 14.885C28.1014 13.72 28.1445 12.4256 28.6185 11.3037ZM14.8282 30.2459C9.05351 30.1165 4.31309 25.4133 4.2269 19.6314C4.09762 13.4611 9.09661 8.45589 15.2161 8.58534C20.9908 8.67164 25.7312 13.418 25.8174 19.1999C25.9467 25.327 20.9477 30.3322 14.8282 30.2459Z"/><path fill="#fff" d="M16.6808 18.2506L14.1382 14.3241C13.7503 13.6769 12.8884 13.5043 12.242 13.8926C11.8542 14.1515 11.5956 14.583 11.5956 15.0576C11.5956 15.3165 11.6818 15.5754 11.8111 15.7912L13.5349 18.4664C13.6641 18.6821 13.621 18.941 13.4918 19.1136L10.8199 22.0477C10.3028 22.6086 10.3458 23.4716 10.9061 23.9894C11.1646 24.2051 11.5094 24.3346 11.8542 24.3346C12.242 24.3346 12.5868 24.162 12.8453 23.9031L14.8277 21.5731C15.0001 21.4005 15.2587 21.4005 15.3879 21.6162L16.8101 23.6442C16.8963 23.8168 17.0255 23.9463 17.1979 24.0326C17.672 24.3777 18.2753 24.3777 18.7493 24.0757C19.1372 23.8168 19.3957 23.3853 19.3957 22.9107C19.3957 22.6518 19.3096 22.3929 19.1803 22.1772L16.6808 18.2506Z"/></g></svg>

<svg fill="none" viewBox="0 0 115 34"><g fill="#fff" opacity=".4"><path d="M46.634 19.373h-2.197a.617.617 0 01-.604-.604v-6.947a.617.617 0 00-.603-.604h-1.896a.617.617 0 00-.604.604v17.561c0 .345.302.604.604.604h1.896a.617.617 0 00.603-.604v-6.817c0-.345.302-.604.604-.604h2.197c.345 0 .604.302.604.604v6.86c0 .346.301.605.603.605h1.896a.617.617 0 00.604-.605V11.822a.617.617 0 00-.604-.604h-1.896a.617.617 0 00-.603.604v6.904c0 .345-.259.647-.604.647zm9.735-7.638l-3.103 17.562c-.043.345.216.69.56.69h1.897c.302 0 .56-.215.56-.517l.517-3.194c.043-.302.302-.517.56-.517h2.414c.301 0 .56.215.56.517l.56 3.237c.043.302.302.517.56.517h1.983c.388 0 .69-.345.56-.733l-3.232-17.562c-.043-.302-.302-.517-.56-.517h-3.232c-.302 0-.518.215-.604.517zm2.888 11.392h-1.25c-.388 0-.603-.345-.56-.69l.56-6.473c.13-.69 1.077-.69 1.163 0l.604 6.472c.086.346-.173.69-.517.69zm13.275-4.014H70.42c-.388 0-.603-.172-.603-.604v-4.056c0-.388.215-.604.603-.604h1.25c.388 0 .603.173.603.604v1.899c0 .345.302.604.603.604h1.983a.617.617 0 00.603-.604v-2.373c0-1.855-.991-2.805-2.973-2.805h-2.845c-1.982 0-2.973.95-2.973 2.805v4.832c0 1.856.991 2.848 2.93 2.848h2.112c.388 0 .603.173.603.604v4.488c0 .388-.172.604-.603.604h-1.25c-.388 0-.603-.173-.603-.604v-1.899a.617.617 0 00-.603-.604h-1.983a.617.617 0 00-.603.604v2.373c0 1.856.991 2.805 2.973 2.805h2.802c1.982 0 2.973-.95 2.973-2.805v-5.22c.043-1.942-.991-2.892-2.887-2.892zm11.767 7.638c0 .389-.172.604-.603.604h-1.681c-.388 0-.603-.172-.603-.604v-14.93a.617.617 0 00-.604-.603h-1.982a.617.617 0 00-.603.604V27.14c0 1.855.99 2.804 2.973 2.804h3.232c1.983 0 2.974-.95 2.974-2.804V11.822a.617.617 0 00-.603-.604h-1.854a.617.617 0 00-.603.604l-.043 14.93zm15.599-6.99v-5.739c0-1.855-.991-2.805-2.974-2.805h-5.602a.617.617 0 00-.603.604v17.562c0 .345.301.604.603.604h1.896a.617.617 0 00.604-.604v-6.17c0-.346.301-.604.603-.604.215 0 .43.172.56.388l2.457 6.602c.129.215.344.388.56.388h2.068c.388 0 .733-.388.561-.777l-2.37-6.127c-.13-.302.042-.604.344-.776.776-.432 1.293-1.338 1.293-2.546zm-3.146-5.307v4.918c0 .389-.215.605-.603.605h-1.724a.617.617 0 01-.603-.605v-4.918c0-.346.301-.604.603-.604h1.724c.388 0 .603.215.603.604zm13.445-3.237h-3.232c-.302 0-.56.216-.56.518l-3.103 17.562c-.043.345.216.69.56.69h1.896c.302 0 .561-.216.561-.518l.517-3.193c.043-.302.301-.517.56-.517h2.413c.302 0 .561.215.561.517l.56 3.236c.043.302.301.518.56.518h1.982c.388 0 .69-.345.561-.733l-3.232-17.562c-.087-.302-.302-.518-.604-.518zm-.991 11.91h-1.164c-.387 0-.603-.346-.56-.69l.56-5.912c.13-.69 1.078-.69 1.164 0l.603 5.911a.611.611 0 01-.603.69zM28.618 11.303c.949-2.287.949-6.947-.301-10.529-.345-.647-1.293-.431-1.336.26v.258c-.216 3.409-1.465 5.264-3.318 6.17-.302.13-.776.13-1.078-.086a14.19 14.19 0 00-7.584-2.2c-2.802 0-5.387.82-7.585 2.2-.302.173-.647.216-.948.086-1.896-.69-3.19-2.761-3.405-6.213V.991C3.02.301 2.03.085 1.727.732.477 4.357.521 9.017 1.426 11.304c.474 1.122.474 2.416.086 3.581a13.362 13.362 0 00-.733 4.746c.173 7.508 6.55 13.894 14.05 14.024 7.929.086 14.393-6.3 14.393-14.24a14.26 14.26 0 00-.733-4.53 5.123 5.123 0 01.13-3.581zm-13.79 18.942c-5.774-.13-10.515-4.833-10.601-10.615-.13-6.17 4.87-11.175 10.99-11.046 5.774.087 10.514 4.833 10.6 10.615.13 6.127-4.87 11.132-10.989 11.046z"/><path d="M16.68 18.25l-2.542-3.926c-.388-.647-1.25-.82-1.896-.431-.388.258-.646.69-.646 1.165 0 .258.086.517.215.733l1.724 2.675a.586.586 0 01-.043.648l-2.672 2.934a1.37 1.37 0 00.086 1.941c.259.216.603.346.948.346a1.4 1.4 0 00.991-.432l1.983-2.33c.172-.172.43-.172.56.043l1.422 2.028a.846.846 0 00.388.389 1.362 1.362 0 001.551.043c.388-.26.647-.69.647-1.165 0-.26-.086-.518-.216-.734l-2.5-3.926z"/></g></svg>
